!!!COM: Louise Reichardt
!!!CNT: Deutsch
!!!TXO: Deutsch
!!!OTL: Der Sa2nger geht
!!!LYR: Novalis (Georg Friedrich Freiherr von Hardenberg)
!!!OPR: 
!!!OPS: No opus information available
!!!ONM: No. 17
!!!ENC: Ben Fuhrman
!!!YOR: Louise Reichardt: Songs
!!!YOR: New York, Da Capo Press, 1981
!!!ODT: 1800 - 1826
!!NB: Only vocal melody encoded.
!!NB: First instance of melodic material only encoded.
!!created: 2/18/10 1:32PM
!!proofed and posted: 2/18/10 1:32PM
**kern	**silbe
*clef G2	*
*k[f#c#g#d#]	*
*M4/4	*
*MM[Langsam und getragen]	*
=2	=2
2r	.
4r	.
{4b	{Der
=3	=3
4.b	Sa2n-
8g#	-ger
8b	geht
8a	auf
8g#	rau-
8f#	-hen
=4	=4
4f#	Pfa-
4e	-den,
8r	.
8e	zer-
8d#	-reisst
8e	in
=5	=5
4f#	Dor-
4B	-nen
4e	sein
4g#	Ge-
=6	=6
2f#}	-wand;}
4r	.
{4b	{er
=7	=7
4.b	muss
8g#	durch
8b	Fluss
8a	und
8g#	Su2m-
8f#	-pfe
=8	=8
4f#	ba-
8e	-den
8e	und
4.cc#	keins
8b	reicht
=9	=9
4b	hu2l-
4g#	-freich
4f#	ihm
4a	die
=10	=10
4g#}	Hand,}
4r	.
2r	.
=11	=11
1r	.
=12	=12
{4b	{Ein-
8b	-sam
8b	und
8a	pfad-
8gn	-los
8f#	fliesst
8e	in
=13	=13
8e	Kla-
8d#	|
4d#	-gen
8r	.
8b	jetzt
8ccn	u2-
8b	-ber
=14	=14
8.b	sein
16b	er-
16a	-mat
16gn	|
16f#	-tet
16e	|
4.b}	Herz,}
{8b	{er
=15	=15
8ee	kann
(16ff#	|
16gg#	|
16ff#	|
16ee	|
16dd#)	|
16cc#	die
8b	Lau-
8b	-te
8cc#	kaum
8dd#	noch
=16	=16
(8.ee	tra-
16g#)	|
4g#	-gen,
4f#	ihn
8cc#	u2-
8b	-ber-
=17	=17
4.b	-mannt
8g#	ein
(4b	tie-
8a)	|
8f#	-fer
=18	=18
2e}	Schmerz.}
2r	.
==	==
*-	*-
